X: 4
T: My Tocher's the Jewel  v.2
P: piffero secondo 10816
O: Dan Moylan
%R: jig, march
F: http://ancients.sudburymuster.org/mus/ssp/pdf/draft111F.pdf
Z: 2019 John Chambers <jc:trillian.mit.edu>
M: 6/8
L: 1/8
K: D
C2 |\
A,<DD D2C | D<FD Adc | A<AA F2E | F<CC C2C |\
A,<DD D2C | D<FD Adc | A<cB c<AE | F2D D2E |
c>Bc/A/ c<AF | D<EE A2A | ccd c<AE | F<CC C2C |\
D<EC D<EC | D>EF/E A<dc | A<cB c<AE | F<DD D3 |\
z3 z2 |]


